X:1
T:RVW2/1/110 It's of an Old Couple
T:RVW2/1/110 It's of an Old Couple
T:Transcribed by Simon Furey and Lewis Jones Sung by Mrs Verrall, Sept. 6th 1908 [2 of 4]
C:Transcribed by Simon Furey and Lewis Jones
C:Sung by Mrs Verrall, Sept. 6th 1908 [2 of 4]
L:1/8
Q:1/4=100
M:6/8
K:D
V:1 treble 
V:1
"^Editorialsuggestion" A | dddAAA | (BB)B A3 | A2 A d2 d | g2 ff!fermata!ee | f2 e f2 e | %6
w: It's|of an old cou- ple and|they * were poor;|Raj- dum tor- um|row- do rod- dy It's|of~an old cou- ple|
 ffg (a2 a) | d2 d def | eed cBA |[M:9/8] B2 B B2 c dcB | A2 d e2 f ed |] %11
w: and they were poor; *|They lived in a lit-|tle house, had but one door.|Raj- dum tor- um rid- dle dum,|Raj- dum tor- um rod- dy.|

